tiny/email.svg

<svg viewBox="0 0 512 512" xmlns="http://www.w3.org/2000/svg">
<rect fill="#673147" height="100%" rx="15%" width="100%"/>
<path d="m412 111h-312c-24 0-44 20-44 45v200c0 24 20 44 44 44h312c24 0 44-20 44-44v-200c0-25-20-45-44-45zm-220 164 38 33a39 39 0 0 0 51 0l39-33-1 1 87 87h-300l87-87zm-103 71v-161l86 75zm248-86 86-75v161zm86-112v5l-157 137c-5 5-15 5-20 0l-157-137v-5z" fill="#fff"/>
</svg>

<svg xmlns="http://www.w3.org/2000/svg" version="1.1" viewBox="0 0 512 512">
<rect height="100%" width="100%" rx="15%" ry="15%" fill="#673147"/>
<path d="M412 111H100c-24 0-44 20-44 45v200c0 24 20 44 44 44h312c24 0 44-20 44-44V156c0-25-20-45-44-45zM192 275l38 33a39 39 0 0 0 51 0l39-33-1 1 87 87H106l87-87zM89 346V185l86 75zm248-86l86-75v161zm86-112v5L266 290c-5 5-15 5-20 0L89 153v-5z" fill="#fff"/>
</svg>
